X:104
T:scales_g_minor_harmonic
C:Beringer and Dunhill
%%score { ( 1 ) | ( 2 ) }
M:7/4
K:Gmin
V:1 treble
V:2 bass octave=-1
V:1
L:1/16
"^Octaves"g,,a,,b,,c, DE^FG ABcd e^fg^f edcB AG^FE Dc,b,,a,,:|g,,4|:
"^Thirds"b,,c,DE ^FGAB cde^f gaba g^fed cBAG ^FEDC:|b,,4|:
"^Sixths"G,A,B,C DE^FG ABcd e^fg^f edcB AG^FE DCB,A, :|G,4|]
V:2
L:1/16
g,,a,,b,,c, DE^FG ABcd e^fg^f edcB AG^FE Dc,b,,a,,:|g,,4|:
g,,a,,b,,c, D=E^FG ABcd =e^fg=f _edcB AG=F_E Dc,b,,a,,:|g,,4|:
[K:clef=bass octave=-1] B,CDE ^FGAB [K:clef=treble octave=-1] cde^f gaba g^fed [K:clef=bass octave=-1] cBAG ^FEDC:|

